!!!!SEGMENT: pl-kk--kk-i-280--001_anonim--salve-pater-salvatoris.krn
!!!cenid: 17xx:2091
!!!COM: Anonim
!!!COM-rismid: pe30004985
!!!CDT:
!!!CNT:
!!!OTL: Salve pater salvatoris
!!!PDT:
!!!AGN: Sacred
!!!SMS-siglum: PL-Kk
!!!SMS-shelfmark: Kk.I.280
!!!SMS-shelfwork: 001 W
!!!SMS-variant:
!!!SMS-altvar:
!!!NIFC-rismid: 1001147323
!!!URL-scan: http://repozytorium.nifc.pl/skany/pl-kk-nut--i-280
!!!ONB-nifc: UWAGA: utwory w zbiorze: 1. Salve pater salvatoris, 2. Jesu corona virginum
**kern	**text	**text	**text	**text	**kern	**text	**text	**text	**text	**dynam	**kern	**text	**text	**text	**text	**dynam	**kern	**text	**text	**text	**text	**dynam
*part4	*part4	*part4	*part4	*part4	*part3	*part3	*part3	*part3	*part3	*part3	*part2	*part2	*part2	*part2	*part2	*part2	*part1	*part1	*part1	*part1	*part1	*part1
*staff4	*staff4	*staff4	*staff4	*staff4	*staff3	*staff3	*staff3	*staff3	*staff3	*	*staff2	*staff2	*staff2	*staff2	*staff2	*	*staff1	*staff1	*staff1	*staff1	*staff1	*
*I"Baſso.	*	*	*	*	*I"Tenore	*	*	*	*	*	*I"Alto.	*	*	*	*	*	*I"Canto.	*	*	*	*	*
*I'B	*	*	*	*	*I'T	*	*	*	*	*	*I'A	*	*	*	*	*	*I'S	*	*	*	*	*
*clefF4	*	*	*	*	*clefC4	*	*	*	*	*	*clefC3	*	*	*	*	*	*clefC1	*	*	*	*	*
*k[b-]	*	*	*	*	*k[b-]	*	*	*	*	*	*k[b-]	*	*	*	*	*	*k[b-]	*	*	*	*	*
*F:	*	*	*	*	*F:	*	*	*	*	*	*F:	*	*	*	*	*	*F:	*	*	*	*	*
*M3/2	*	*	*	*	*M3/2	*	*	*	*	*	*M3/2	*	*	*	*	*	*M3/2	*	*	*	*	*
*>[A,B,B]	*	*	*	*	*>[A,B,B]	*	*	*	*	*	*>[A,B,B]	*	*	*	*	*	*>[A,B,B]	*	*	*	*	*
=1	=1	=1	=1	=1	=1	=1	=1	=1	=1	=1	=1	=1	=1	=1	=1	=1	=1	=1	=1	=1	=1	=1
*>A	*	*	*	*	*>A	*	*	*	*	*	*>A	*	*	*	*	*	*>A	*	*	*	*	*
!LO:TX:a:i:t=De S(an)cto Joseph.	!	!	!	!	!LO:TX:a:i:t=De Sancto Joseph.	!	!	!	!	!	!LO:TX:a:i:t=De S(an)cto Joseph.	!	!	!	!	!	!LO:TX:a:i:t=De S(an)cto Joseph.	!	!	!	!	!
!LO:TX:a:t=P:problem:znaki BB- B-	!	!	!	!	!	!	!	!	!	!	!	!	!	!	!	!	!	!	!	!	!	!
2r	.	.	.	.	2r	.	.	.	.	.	2r	.	.	.	.	.	2r	.	.	.	.	.
*2\right	*	*	*	*	*2\right	*	*	*	*	*	*2\right	*	*	*	*	*	*2\right	*	*	*	*	*
2F\	1.-Sal-	2.-Dul-	3.-O	4.-Per	2c\	1. Sal-	2. Dul-	3. O	4. Per	.	2f\	1. Sal-	2. Dul-	3. O	4. Per	.	2a\	1. Sal-	2. Dul-	3. O	4. Per	.
2C/	-ve	-ces	Jo-	Ma-	2c\	-ve	-ces	Jo-	Ma-	.	2e\	-ve	-ces	Jo-	Ma-	.	2g\	-ve	-ces	Jo-	Ma-	.
=2	=2	=2	=2	=2	=2	=2	=2	=2	=2	=2	=2	=2	=2	=2	=2	=2	=2	=2	=2	=2	=2	=2
1F	Pa-	Cu-	-se-	-ri-	(2c\	Pa-	Cu-	-se-	-ri-	.	2f\	Pa-	Cu-	-se-	-ri-	.	(2a\	Pa-	Cu-	-se-	-ri-	.
.	.	.	.	.	2d\)	.	.	.	.	.	1g	-ter	-nae	-phe	-ae	.	2bn\)	.	.	.	.	.
2E\	-ter	-nae	-phe	-ae	2en\	-ter	-nae	-phe	-ae	.	.	.	.	.	.	.	2cc\	-ter	-nae	-phe	-ae	.
=3	=3	=3	=3	=3	=3	=3	=3	=3	=3	=3	=3	=3	=3	=3	=3	=3	=3	=3	=3	=3	=3	=3
(2D/	Sal-	dul-	plùs	Tu-	(2A\	Sal-	dul-	plùs	Tu-	.	2f\	Sal-	dul-	plùs	Tu-	.	1cc	Sal-	dul-	plùs	Tu-	.
2G\)	.	.	.	.	2D/)	.	.	.	.	.	1d	-va-	-ces	a-	-ae	.	.	.	.	.	.	.
2GG/	-va-	-ces	a-	-ae	2G/	-va-	-ces	a-	-ae	.	.	.	.	.	.	.	2bn\	-va-	-ces	a-	-ae	.
=4	=4	=4	=4	=4	=4	=4	=4	=4	=4	=4	=4	=4	=4	=4	=4	=4	=4	=4	=4	=4	=4	=4
1C	-to-	pan-	-man-	Ma-	1G	-to-	pan-	-man-	Ma-	.	1e	-to-	pan-	-man-	Ma-	.	1cc	-to-	pan-	-man-	Ma-	.
2C,/	-ris	-ni!	-de!	-tris	2G/	-ris!	-ni,	-de,	-tris	.	2e\	-ris,	-ni,	-de,	-tris	.	2cc\	-ris!	-ni,	-de,	-tris	.
=5	=5	=5	=5	=5	=5	=5	=5	=5	=5	=5	=5	=5	=5	=5	=5	=5	=5	=5	=5	=5	=5	=5
2r	.	.	.	.	2r	.	.	.	.	.	2r	.	.	.	.	.	2r	.	.	.	.	.
2c\	Sal-	Dul-	et	Pre-	2G/	Sal-	dul-	et	pre-	.	2e\	Sal-	dul-	et	pre-	.	2cc\	Sal-	Dul-	et	Pre-	.
2G\	-ve	-ces	prae	-ces,	2G/	-ve	-ces	prae	-ces,	.	2d\	-ve	-ces	prae	-ces,	.	2bn\	-ve	-ces	prae	-ces,	.
=6	=6	=6	=6	=6	=6	=6	=6	=6	=6	=6	=6	=6	=6	=6	=6	=6	=6	=6	=6	=6	=6	=6
1c	Cu-	Di-	Cun-	et	(<2G/	Cu-	di-	Cun-	et	.	(2e\	Cu-	di-	Cun-	et	.	2cc\	Cu-	di-	Cun-	et	.
.	.	.	.	.	2A\)	.	.	.	.	.	2f#X\)	.	.	.	.	.	1dd	-stos	-es	-ctis	Jo-	.
2Bn\	-stos	-es,	-ctis	Jo-	2Bn\	-stos	-es	-ctis	Jo-	.	2g\	-stos	-es	-ctis	Jo-	.	.	.	.	.	.	.
=7	=7	=7	=7	=7	=7	=7	=7	=7	=7	=7	=7	=7	=7	=7	=7	=7	=7	=7	=7	=7	=7	=7
2A\	Re-	dul-	ho-	-se-	2e\	Re-	dul-	ho-	-se-	.	1g	Re-	dul-	ho-	-se-	.	2cc\	Re-	dul-	ho-	-se-	.
2d\	.	.	.	.	1d	-dem-	-ces	-no-	-phi	.	.	.	.	.	.	.	1a	-dem-	-ces	-no-	-phi	.
2D/	-dem-	-ces	-no-	-phi	.	.	.	.	.	.	2f#X\	-dem-	-ces	-no-	-phi	.	.	.	.	.	.	.
=8	=8	=8	=8	=8	=8	=8	=8	=8	=8	=8	=8	=8	=8	=8	=8	=8	=8	=8	=8	=8	=8	=8
1G	-pto-	an-	-ran-	Pa-	1d	-pto-	an-	-ran-	Pa-	.	1g	-pto-	an-	-ran-	Pa-	.	1bn	-pto-	an-	-ran-	Pa-	.
!LO:SIC:v:t=custos E	!	!	!	!	!	!	!	!	!	!	!	!	!	!	!	!	!	!	!	!	!	!
2G\	-ris,	-ni,	-de,	-tris,	2d\	-ris	-ni,	-de,	-tris	.	2g\	-ris	-ni,	-de,	-tris,	.	2b\	-ris,	-ni,	-de,	-tris,	.
!LO:LB:g=original	!	!	!	!	!	!	!	!	!	!	!	!	!	!	!	!	!	!	!	!	!	!
=9	=9	=9	=9	=9	=9	=9	=9	=9	=9	=9	=9	=9	=9	=9	=9	=9	=9	=9	=9	=9	=9	=9
2r	.	.	.	.	2r	.	.	.	.	.	2r	.	.	.	.	.	2r	.	.	.	.	.
2E\	Jo-	dum	o	Je-	2c\	Jo-	dum	o	Je-	.	2g\	Jo-	dum	o	Je-	.	2cc\	Jo-	dum	o	Je-	.
!	!	!	!	!	!	!	!	!	!	!	!	!	!	!	!	!	!LO:SIC:v:t=custos cc	!	!	!	!	!
2C/	-seph	nu-	Flos	-su	2e\	-seph	nu-	Flos	-su	.	2g\	-seph	nu-	Flos	-su	.	2cc\	-seph	nu-	Flos	-su	.
!	!	!	!	!	!LO:LB:g=original	!	!	!	!	!	!	!	!	!	!	!	!LO:LB:g=original	!	!	!	!	!
=10	=10	=10	=10	=10	=10	=10	=10	=10	=10	=10	=10	=10	=10	=10	=10	=10	=10	=10	=10	=10	=10	=10
(2F\	ter	-tri-	pu-	Tu	(2A\	ter	-tri-	pu-	Tu	.	2a\	ter	-tri-	pu-	Tu	.	(2cc\	ter	-tri-	pu-	Tu	.
2G\)	.	.	.	.	2e\)	.	.	.	.	.	4g\	.	.	.	.	.	2bn\)	.	.	.	.	.
.	.	.	.	.	.	.	.	.	.	.	4f\	.	.	.	.	.	.	.	.	.	.	.
2A\	a-	-sti	-di-	nos	2A/	a-	-sti	-di-	nos	.	2e\	a-	-sti	-di-	nos	.	2cc\	a-	-sti	-di-	nos	.
!	!	!	!	!	!	!	!	!	!	!	!LO:LB:g=original	!	!	!	!	!	!	!	!	!	!	!
=11	=11	=11	=11	=11	=11	=11	=11	=11	=11	=11	=11	=11	=11	=11	=11	=11	=11	=11	=11	=11	=11	=11
2F\	-ma-	Do-	-ci-	ad-	2A/	-ma-	Do-	-ci-	ad-	.	4f\	-ma-	Do-	-ci-	ad-	.	2dd\	-ma-	Do-	-ci-	ad-	.
.	.	.	.	.	.	.	.	.	.	.	4e\	.	.	.	.	.	.	.	.	.	.	.
2G\	.	.	.	.	2.G/	.	.	.	.	.	2.d\	.	.	.	.	.	2.cc\	.	.	.	.	.
2GG/	-bi-	-mi-	-ti-	-ju-	.	.	.	.	.	.	.	.	.	.	.	.	.	.	.	.	.	.
.	.	.	.	.	4G/	-bi-	-mi-	-ti-	-ju-	.	4d\	-bi-	-mi-	-ti-	-ju-	.	4bn\	-bi-	-mi-	-ti-	-ju-	.
=12	=12	=12	=12	=12	=12	=12	=12	=12	=12	=12	=12	=12	=12	=12	=12	=12	=12	=12	=12	=12	=12	=12
2C,/	-lis.	-num.	-ae,	-va,	2G,/	-lis	-num	-ae	-va,	.	2e,\	-lis!	-num.	-ae	-va	.	2cc,\	-lis,	-num,	-ae,	-va,	.
2c\	Jo-	dum	o	Je-	2G/	Jo-	dum	o	Je-	.	2e\	Jo-	dum	o	Je-	.	2cc\	Jo-	dum	o	Je-	.
2A\	-seph	nu-	Flos	-su	2A/	-seph	nu-	Flos	-su	.	2f\	-seph	nu-	Flos	-su	.	2cc\	-seph	nu-	Flos	-su	.
=13	=13	=13	=13	=13	=13	=13	=13	=13	=13	=13	=13	=13	=13	=13	=13	=13	=13	=13	=13	=13	=13	=13
(2B-X\	ter-	-tri-	pu-	Tu	(2F/	ter	-tri-	pu-	Tu	.	(2f\	ter	-tri-	pu-	Tu	.	2dd\	ter	-tri-	pu-	Tu	.
2c\)	.	.	.	.	2A/)	.	.	.	.	.	2e\)	.	.	.	.	.	(4cc\	.	.	.	.	.
.	.	.	.	.	.	.	.	.	.	.	.	.	.	.	.	.	4b-\)	.	.	.	.	.
2d\	-a-	-sti	-di-	nos	2d\	a-	-sti	-di-	nos	.	2f\	a-	-sti	-di-	nos	.	2a\	a-	-sti	-di-	nos	.
=14	=14	=14	=14	=14	=14	=14	=14	=14	=14	=14	=14	=14	=14	=14	=14	=14	=14	=14	=14	=14	=14	=14
2B-X\	-ma-	Do-	-ci-	ad-	2d\	-ma-	Do-	-ci-	ad-	.	1f	-ma-	Do-	-ci-	ad-	.	(4b-\	-ma-	Do-	-ci-	ad-	.
.	.	.	.	.	.	.	.	.	.	.	.	.	.	.	.	.	4a\)	.	.	.	.	.
2c\	.	.	.	.	2.c\	.	.	.	.	.	.	.	.	.	.	.	2.g/	.	.	.	.	.
2C/	-bi-	-mi-	-ti-	-ju-	.	.	.	.	.	.	2e\	-bi-	-mi-	-ti-	-ju-	.	.	.	.	.	.	.
.	.	.	.	.	4c\	-bi-	-mi-	-ti-	-ju-	.	.	.	.	.	.	.	4g/	-bi-	-mi-	-ti-	-ju-	.
=15	=15	=15	=15	=15	=15	=15	=15	=15	=15	=15	=15	=15	=15	=15	=15	=15	=15	=15	=15	=15	=15	=15
2F\	-lis.	-num.	-ae:	-va!	2c,\	-lis.	-num.	-ae.	-va.	.	2f,\	-lis!	-num.	-ae.	-va.	.	2a,\	-lis.	-num.	-ae	-va.	.
!	!	!	!	!	!	!	!	!	!	!LO:DY:t=Forte	!	!	!	!	!	!LO:DY:t=for.	!	!	!	!	!	!LO:DY:t=forte
2r	.	.	.	.	2F/	Sal-	O	Ti-	Ut	f	2a\	Sal-	O	Ti-	Ut	f	2cc\	Sal-	O	Ti-	Ut	f
2r	.	.	.	.	2G/	-ve	quam	-bi	poſ-	.	2g\	-ve	quam	-bi	poſ-	.	2b-X\	-ve	quàm	-bi	poſ-	.
=16	=16	=16	=16	=16	=16	=16	=16	=16	=16	=16	=16	=16	=16	=16	=16	=16	=16	=16	=16	=16	=16	=16
!LO:N:vis=0	!	!	!	!	!	!	!	!	!	!	!	!	!	!	!	!	!	!	!	!	!	!
0.r	.	.	.	.	2.A\	Spon-	fu-	tan-	-si-	.	2.f\	Spon-	fu-	tan-	-si-	.	2.a\	Spon-	fu-	tan-	-si-	.
.	.	.	.	.	4A\	-se	-it	-ta	-mus	.	4a\	-se	-it	-ta	-mus	.	4cc\	-se	-it	-ta	-mus	.
.	.	.	.	.	4B-X\	Ma-	ad-	sors	Te	.	4g\	Ma-	ad-	ſors	Te	.	4b-X\	Ma-	ad-	sors	Te	.
.	.	.	.	.	4B-\	-tris	-mi-	est	vi-	.	4f\	-tris	-mi-	est	vi-	.	4a\	-tris	-mi-	est	vi-	.
=17	=17	=17	=17	=17	=17	=17	=17	=17	=17	=17	=17	=17	=17	=17	=17	=17	=17	=17	=17	=17	=17	=17
.	.	.	.	.	1c	De-	-ran-	da-	-de-	.	2e\	De-	-ran-	da-	-de-	.	1g	De-	-ran-	da-	-de-	.
.	.	.	.	.	.	.	.	.	.	.	1e	-i,	-da	-ta,	-re,	.	.	.	.	.	.	.
.	.	.	.	.	2C/	-i	-da	-ta	-re	.	.	.	.	.	.	.	2g/	-i!	-da	-ta	-re	.
!	!	!	!	!	!	!	!	!	!	!	!	!	!	!	!	!	!LO:LB:g=original	!	!	!	!	!
=18	=18	=18	=18	=18	=18	=18	=18	=18	=18	=18	=18	=18	=18	=18	=18	=18	=18	=18	=18	=18	=18	=18
2r	.	.	.	.	2r	.	.	.	.	.	2r	.	.	.	.	.	2r	.	.	.	.	.
2C/	Sal-	Tu-	quan-	et	2c\	Sal-	Tu-	quan-	et	.	2g\	Sal-	Tu-	quan-	et	.	2een\	Sal-	Tu-	quan-	et	.
!	!	!	!	!	!LO:SIC:v:t=custos G	!	!	!	!	!	!	!	!	!	!	!	!	!	!	!	!	!
2D/	-ve	-a	-ta	ae-	2Bn\	-ve	-a	-ta	ae-	.	2fn\	-ve	-a	-ta	ae-	.	2dd\	-ve	-a	-ta	ae-	.
!	!	!	!	!	!LO:LB:g=original	!	!	!	!	!	!	!	!	!	!	!	!	!	!	!	!	!
=19	=19	=19	=19	=19	=19	=19	=19	=19	=19	=19	=19	=19	=19	=19	=19	=19	=19	=19	=19	=19	=19	=19
2.E\	Hos-	Vi-	nul-	-ter-	2.G/	Hos-	Vi-	nul-	-ter-	.	2.en\	Hos-	Vi-	nul-	-ter-	.	2.cc\	Hos-	Vi-	nul-	-ter-	.
4E\	-pes	-ta	-li	-nùm	4c\	-pes	-ta	-li	-nùm	.	4g\	-pes	-ta	-li	-num	.	4een\	-pes	-ta	-li	-num	.
4F\	Je-	ve-	est	poſ-	4A/	Je-	ve-	est	poſ-	.	4f\	Je-	Ve-	est	poſ-	.	4dd\	Je-	Ve-	est	poſ-	.
!LO:SIC:v:t=custos G	!	!	!	!	!	!	!	!	!	!	!LO:SIC:v:t=custos d	!	!	!	!	!	!	!	!	!	!	!
4F\	-su	-ne-	col-	-si-	4A/	-su	-ne-	col-	-si-	.	4e\	-su	-ne-	col-	-si-	.	4cc\	-su	-ne-	Col-	-si-	.
!LO:LB:g=original	!	!	!	!	!	!	!	!	!	!	!LO:LB:g=original	!	!	!	!	!	!	!	!	!	!	!
=20	=20	=20	=20	=20	=20	=20	=20	=20	=20	=20	=20	=20	=20	=20	=20	=20	=20	=20	=20	=20	=20	=20
1G	me-	-ran-	-la-	-de-	1G	me-	-ran-	-la-	-de-	.	1d	me-	-ran-	-la-	-de-	.	2bn\	me-	-ran-	-la-	-de-	.
.	.	.	.	.	.	.	.	.	.	.	.	.	.	.	.	.	1b	-i,	-da,	-ta,	-re	.
2GG/	-i.	-da	-ta	-re,	2d\	-i,	-da,	-ta,	-re	.	2d\	-i,	-da	-ta	-re	.	.	.	.	.	.	.
=21!|:	=21!|:	=21!|:	=21!|:	=21!|:	=21!|:	=21!|:	=21!|:	=21!|:	=21!|:	=21!|:	=21!|:	=21!|:	=21!|:	=21!|:	=21!|:	=21!|:	=21!|:	=21!|:	=21!|:	=21!|:	=21!|:	=21!|:
*>B	*	*	*	*	*>B	*	*	*	*	*	*>B	*	*	*	*	*	*>B	*	*	*	*	*
!	!	!	!	!	!	!	!	!	!	!	!	!	!	!	!	!	!LO:TX:a:t=1.	!	!	!	!	!
(4c\	Jo-	ha-	ab	in	4e\	Jo-	ha-	ab	in	.	1.r	.	.	.	.	.	1.r	.	.	.	.	.
4B-X\	.	.	.	.	4d\	.	.	.	.	.	.	.	.	.	.	.	.	.	.	.	.	.
4c\	.	.	.	.	4e\	.	.	.	.	.	.	.	.	.	.	.	.	.	.	.	.	.
4d\)	.	.	.	.	4f\	.	.	.	.	.	.	.	.	.	.	.	.	.	.	.	.	.
4c\	.	.	Au-	Cae-	4e\	.	.	au-	Cae-	.	.	.	.	.	.	.	.	.	.	.	.	.
4B-\	.	.	.	.	4d\	.	.	.	.	.	.	.	.	.	.	.	.	.	.	.	.	.
=22	=22	=22	=22	=22	=22	=22	=22	=22	=22	=22	=22	=22	=22	=22	=22	=22	=22	=22	=22	=22	=22	=22
1A	.	.	-tho-	-le-	1c	.	.	-tho-	-le-	.	(4a\	Jo-	ha-	ab	in	.	4cc\	Jo-	ha-	ab	in	.
!	!	!	!	!	!	!	!	!	!	!	!	!	!	!	!	!	!LO:TX:a:t=P:problem:♭ above	!	!	!	!	!
.	.	.	.	.	.	.	.	.	.	.	4g\	.	.	.	.	.	(4b-X\	.	.	.	.	.
.	.	.	.	.	.	.	.	.	.	.	4a\)	.	.	.	.	.	4cc\	.	.	.	.	.
.	.	.	.	.	.	.	.	.	.	.	4b-X\	.	.	.	.	.	4dd\	.	.	.	.	.
2A\	-seph	-bens,	-re	-sti	2c\	-seph,	-bens,	-re	-sti	.	4a\	.	.	au-	Cae-	.	4cc\)	.	.	au-	Cae-	.
.	.	.	.	.	.	.	.	.	.	.	4g\	.	.	.	.	.	4b-\	.	.	.	.	.
=23	=23	=23	=23	=23	=23	=23	=23	=23	=23	=23	=23	=23	=23	=23	=23	=23	=23	=23	=23	=23	=23	=23
4d\	Jo-	ha-	ab	in	4f\	Jo-	ha-	ab	in	.	2f\	.	.	-tho-	-le-	.	1a	.	.	-tho-	-le-	.
(4c\	.	.	.	.	4e\	.	.	.	.	.	.	.	.	.	.	.	.	.	.	.	.	.
4d\	.	.	.	.	4f\	.	.	.	.	.	1f	-seph,	-bens,	-re	-sti	.	.	.	.	.	.	.
4e\)	.	.	.	.	4g\	.	.	.	.	.	.	.	.	.	.	.	.	.	.	.	.	.
4d\	.	.	Au-	Cae-	4f\	.	.	au-	Cae-	.	.	.	.	.	.	.	2a,\	-seph	-bens	-re	-sti	.
4c\|	.	.	.	.	4e\	.	.	.	.	.	.	.	.	.	.	.	.	.	.	.	.	.
=24	=24	=24	=24	=24	=24	=24	=24	=24	=24	=24	=24	=24	=24	=24	=24	=24	=24	=24	=24	=24	=24	=24
1B-X	.	.	-tho-	-le-	1d	.	.	-tho-	-le-	.	4g\	Jo-	ha-	ab	in	.	4b-X\	Jo-	ha-	ab	in	.
.	.	.	.	.	.	.	.	.	.	.	4f\	.	.	.	.	.	4a\	.	.	.	.	.
.	.	.	.	.	.	.	.	.	.	.	4g\	.	.	.	.	.	4b-\	.	.	.	.	.
.	.	.	.	.	.	.	.	.	.	.	4a\	.	.	.	.	.	4cc\	.	.	.	.	.
2B-\	-seph,	-bens	-re	-sti	2d,\	-seph,	-bens,	-re	-sti	.	4g\	.	.	au-	Cae-	.	4b-\	.	.	au-	Cae-	.
.	.	.	.	.	.	.	.	.	.	.	4f\	.	.	.	.	.	4a\	.	.	.	.	.
=25	=25	=25	=25	=25	=25	=25	=25	=25	=25	=25	=25	=25	=25	=25	=25	=25	=25	=25	=25	=25	=25	=25
*	*	*	*	*	*	*ij	*ij	*	*	*	*	*	*	*	*	*	*	*	*	*	*	*
(2c\	Jo-	ha-	ab	in	1c	Jo-	ha-	ab	in	.	1e	.	.	-tho-	-le-	.	1g	.	.	-tho-	-le-	.
2B-X\)	.	.	.	.	.	.	.	.	.	.	.	.	.	.	.	.	.	.	.	.	.	.
2A\	-seph	-bens	Au-	Cae-	2c,\	-seph	-bens	au-	Cae-	.	2f\	-seph	-bens	-re	-sti	.	2a\	-seph	-bens	-re	-sti	.
*	*	*	*	*	*	*Xij	*Xij	*	*	*	*	*	*	*	*	*	*	*	*	*	*	*
=26	=26	=26	=26	=26	=26	=26	=26	=26	=26	=26	=26	=26	=26	=26	=26	=26	=26	=26	=26	=26	=26	=26
4d\	ter	De-	-tho-	-le-	4d\	ter	De-	-tho-	-le-	.	4f\	ter	De-	Gra-	Pa-	.	4a\	ter	De-	Gra-	Pa-	.
4B-\	mi-	-i	-re	-sti	4d\	mi-	-i	-re	-sti	.	4f\	mi-	-i	.	.	.	4b-\	mi-	-i	.	.	.
2c\	-ra-	Fi-	Gra-	Pa-	2.c\	-ra-	Fi-	Gra-	Pa-	.	2f\	-ra-	Fi-	.	.	.	2.g/	-ra-	Fi-	.	.	.
2C/	-bi-	-li-	-ti-	-tri-	.	.	.	.	.	.	2e\	-bi-	-li-	-ti-	-tri-	.	.	.	.	.	.	.
.	.	.	.	.	4c\	-bi-	-li-	-ti-	-tri-	.	.	.	.	.	.	.	4g/	-bi-	-li-	-ti-	-tri-	.
=27	=27	=27	=27	=27	=27	=27	=27	=27	=27	=27	=27	=27	=27	=27	=27	=27	=27	=27	=27	=27	=27	=27
1.F	-lis.	-um.	-ae.	-a.	1.c;	-lis.	-um.	-ae.	-a	.	1.f;<	-lis.	-um.	-ae.	-a.	.	1.a	-lis.	-um.	-ae.	-a	.
==:|!	==:|!	==:|!	==:|!	==:|!	==:|!	==:|!	==:|!	==:|!	==:|!	==:|!	==:|!	==:|!	==:|!	==:|!	==:|!	==:|!	==:|!	==:|!	==:|!	==:|!	==:|!	==:|!
*-	*-	*-	*-	*-	*-	*-	*-	*-	*-	*-	*-	*-	*-	*-	*-	*-	*-	*-	*-	*-	*-	*-
!!!system-decoration: [s1,s2,s3,s4]
!!!RDF**kern: < = below
!!!RDF**kern: | = vertical stroke
!!!ENC: Marta Lawrence
!!!END: 2021-03-31
!!!ENC: Andrzej Borzym
!!!END: 2021-03-10
